; generated by Slic3r 1.3.0 on 2020-10-18 at 18:03:22

; external perimeters extrusion width = 0.44mm (3.18mm^3/s)
; perimeters extrusion width = 0.56mm (8.27mm^3/s)
; infill extrusion width = 0.50mm (8.23mm^3/s)
; solid infill extrusion width = 0.56mm (4.14mm^3/s)
; top infill extrusion width = 0.56mm (3.10mm^3/s)

M104 S190 ; set temperature
G90   ;absolute positioning
M106 S250 ;fan on for the palpeur
G28 X Y
G1 X50
G28
G29
M107 ;start with the fan off
G1 X100 Y20 F3000
G1 Z0.5
M82 ;set extruder to absolute mode
G92 E0 ;zero the extruded length
G1 F200 E10 ;extrude 10mm of feed stock
G92 E0 ;zero the extruded length again
G1 Z3
G1 F3600
; Filament gcode

M109 S190 ; set temperature and wait for it to be reached
G21 ; set units to millimeters
G90 ; use absolute coordinates
M82 ; use absolute distances for extrusion
G92 E0
M106 S91.8
G1 E-4.50000 F3300.00000
G92 E0
G1 Z0.260 F9000.000
G1 X41.099 Y68.835 F9000.000
G1 E4.50000 F3300.00000
G1 F2700
G1 X41.823 Y68.535 E4.53979
G1 X44.458 Y67.828 E4.67826
G1 X45.238 Y67.725 E4.71819
G1 X46.604 Y67.636 E4.78767
G1 X108.604 Y67.636 E7.93458
G1 X111.463 Y68.034 E8.08109
G1 X114.104 Y69.198 E8.22759
G1 X116.327 Y71.039 E8.37410
G1 X117.962 Y73.418 E8.52060
G1 X118.886 Y76.153 E8.66711
G1 X119.068 Y78.100 E8.76639
G1 X119.068 Y115.100 E10.64439
G1 X118.979 Y116.466 E10.71387
G1 X118.877 Y117.242 E10.75362
G1 X118.170 Y119.881 E10.89226
G1 X117.869 Y120.608 E10.93220
G1 X116.504 Y122.970 E11.07067
G1 X116.027 Y123.592 E11.11042
G1 X114.096 Y125.523 E11.24907
G1 X113.474 Y126.000 E11.28882
G1 X111.109 Y127.366 E11.42748
G1 X110.385 Y127.665 E11.46723
G1 X107.747 Y128.372 E11.60588
G1 X106.970 Y128.475 E11.64563
G1 X105.604 Y128.564 E11.71510
G1 X46.604 Y128.564 E14.70975
G1 X45.238 Y128.475 E14.77923
G1 X44.462 Y128.372 E14.81898
G1 X41.823 Y127.665 E14.95763
G1 X41.100 Y127.366 E14.99738
G1 X38.734 Y126.000 E15.13603
G1 X38.113 Y125.523 E15.17578
G1 X36.181 Y123.592 E15.31443
G1 X35.704 Y122.970 E15.35418
G1 X34.338 Y120.605 E15.49284
G1 X34.039 Y119.881 E15.53259
G1 X33.332 Y117.246 E15.67104
G1 X33.230 Y116.466 E15.71099
G1 X33.140 Y115.100 E15.78047
G1 X33.140 Y81.100 E17.50619
G1 X33.229 Y79.738 E17.57548
G1 X33.332 Y78.958 E17.61542
G1 X34.038 Y76.321 E17.75399
G1 X34.338 Y75.596 E17.79382
G1 X35.704 Y73.230 E17.93247
G1 X36.181 Y72.609 E17.97223
G1 X38.113 Y70.677 E18.11088
G1 X38.734 Y70.200 E18.15063
G1 X41.047 Y68.865 E18.28620
G1 E13.78620 F3300.00000
G92 E0
G1 X43.023 Y73.634 F9000.000
G1 E4.50000 F3300.00000
G1 F2700
G1 X44.122 Y73.179 E4.56503
G1 X44.792 Y73.000 E4.60292
G1 X46.085 Y72.829 E4.67425
G1 X46.431 Y72.807 E4.69320
G1 X110.797 Y72.807 E8.21212
G1 X113.898 Y75.907 E8.45186
G1 X113.898 Y115.273 E10.60402
G1 X113.875 Y115.619 E10.62297
G1 X113.705 Y116.911 E10.69421
G1 X113.525 Y117.582 E10.73215
G1 X112.959 Y118.947 E10.81298
G1 X112.613 Y119.547 E10.85087
G1 X111.714 Y120.719 E10.93160
G1 X111.223 Y121.210 E10.96953
G1 X110.051 Y122.109 E11.05028
G1 X109.450 Y122.456 E11.08822
G1 X108.087 Y123.021 E11.16889
G1 X107.416 Y123.200 E11.20688
G1 X106.125 Y123.371 E11.27807
G1 X105.778 Y123.393 E11.29708
G1 X46.431 Y123.393 E14.54163
G1 X46.085 Y123.371 E14.56060
G1 X44.792 Y123.200 E14.63185
G1 X44.122 Y123.021 E14.66983
G1 X42.758 Y122.456 E14.75053
G1 X42.156 Y122.108 E14.78850
G1 X40.985 Y121.209 E14.86922
G1 X40.494 Y120.718 E14.90718
G1 X39.595 Y119.547 E14.98791
G1 X39.248 Y118.945 E15.02590
G1 X38.684 Y117.582 E15.10655
G1 X38.504 Y116.913 E15.14443
G1 X38.334 Y115.619 E15.21577
G1 X38.311 Y115.273 E15.23472
G1 X38.311 Y80.927 E17.11244
G1 X38.333 Y80.582 E17.13134
G1 X38.504 Y79.289 E17.20266
G1 X38.683 Y78.619 E17.24057
G1 X39.249 Y77.254 E17.32136
G1 X39.596 Y76.653 E17.35929
G1 X40.495 Y75.481 E17.44004
G1 X40.985 Y74.990 E17.47798
G1 X42.157 Y74.091 E17.55872
G1 X42.758 Y73.744 E17.59665
G1 X42.968 Y73.657 E17.60908
G1 X43.159 Y74.119 F9000.000
G1 F2700
G1 X44.283 Y73.654 E17.67560
G1 X44.889 Y73.491 E17.70991
G1 X46.134 Y73.327 E17.77854
G1 X46.447 Y73.307 E17.79570
G1 X110.590 Y73.307 E21.30241
G1 X113.398 Y76.115 E21.51950
G1 X113.398 Y115.257 E23.65945
G1 X113.377 Y115.570 E23.67660
G1 X113.213 Y116.813 E23.74516
G1 X113.051 Y117.420 E23.77952
G1 X112.510 Y118.726 E23.85676
G1 X112.196 Y119.269 E23.89106
G1 X111.337 Y120.389 E23.96821
G1 X110.893 Y120.833 E24.00256
G1 X109.773 Y121.692 E24.07973
G1 X109.229 Y122.006 E24.11408
G1 X107.926 Y122.546 E24.19118
G1 X107.318 Y122.709 E24.22558
G1 X106.076 Y122.873 E24.29409
G1 X105.762 Y122.893 E24.31130
G1 X46.447 Y122.893 E27.55407
G1 X46.134 Y122.873 E27.57124
G1 X44.890 Y122.709 E27.63981
G1 X44.283 Y122.546 E27.67420
G1 X42.979 Y122.006 E27.75132
G1 X42.435 Y121.692 E27.78570
G1 X41.316 Y120.833 E27.86284
G1 X40.871 Y120.388 E27.89722
G1 X40.012 Y119.268 E27.97437
G1 X39.697 Y118.723 E28.00877
G1 X39.158 Y117.421 E28.08584
G1 X38.995 Y116.815 E28.12015
G1 X38.831 Y115.570 E28.18879
G1 X38.811 Y115.257 E28.20595
G1 X38.811 Y80.944 E30.08188
G1 X38.831 Y80.631 E30.09900
G1 X38.995 Y79.387 E30.16763
G1 X39.158 Y78.780 E30.20196
G1 X39.698 Y77.475 E30.27916
G1 X40.012 Y76.931 E30.31351
G1 X40.871 Y75.811 E30.39067
G1 X41.316 Y75.367 E30.42503
G1 X42.435 Y74.508 E30.50219
G1 X42.979 Y74.194 E30.53653
G1 X43.104 Y74.142 E30.54389
G1 X43.295 Y74.604 F9000.000
G1 F2700
G1 X44.444 Y74.128 E30.61190
G1 X44.987 Y73.983 E30.64263
G1 X46.183 Y73.825 E30.70857
G1 X46.464 Y73.807 E30.72394
G1 X110.383 Y73.807 E34.21843
G1 X112.898 Y76.322 E34.41288
G1 X112.898 Y115.241 E36.54060
G1 X112.879 Y115.521 E36.55597
G1 X112.722 Y116.716 E36.62185
G1 X112.576 Y117.259 E36.65262
G1 X112.061 Y118.504 E36.72627
G1 X111.780 Y118.991 E36.75699
G1 X110.960 Y120.058 E36.83056
G1 X110.562 Y120.456 E36.86133
G1 X109.495 Y121.276 E36.93491
G1 X109.007 Y121.557 E36.96568
G1 X107.765 Y122.072 E37.03921
G1 X107.220 Y122.218 E37.07001
G1 X106.027 Y122.375 E37.13585
G1 X105.745 Y122.393 E37.15126
G1 X46.464 Y122.393 E40.39223
G1 X46.183 Y122.375 E40.40761
G1 X44.988 Y122.218 E40.47350
G1 X44.444 Y122.072 E40.50430
G1 X43.201 Y121.557 E40.57784
G1 X42.713 Y121.275 E40.60863
G1 X41.646 Y120.456 E40.68220
G1 X41.248 Y120.058 E40.71299
G1 X40.429 Y118.990 E40.78656
G1 X40.147 Y118.502 E40.81737
G1 X39.632 Y117.260 E40.89087
G1 X39.487 Y116.717 E40.92159
G1 X39.329 Y115.521 E40.98754
G1 X39.311 Y115.241 E41.00291
G1 X39.311 Y80.960 E42.87706
G1 X39.329 Y80.680 E42.89239
G1 X39.487 Y79.484 E42.95833
G1 X39.632 Y78.941 E42.98908
G1 X40.147 Y77.697 E43.06269
G1 X40.429 Y77.210 E43.09345
G1 X41.248 Y76.142 E43.16704
G1 X41.646 Y75.744 E43.19781
G1 X42.714 Y74.925 E43.27139
G1 X43.240 Y74.627 E43.30442
G1 X43.431 Y75.089 F9000.000
G1 F2700
G1 X44.606 Y74.603 E43.37391
G1 X45.085 Y74.474 E43.40106
G1 X46.232 Y74.323 E43.46431
G1 X46.480 Y74.307 E43.47789
G1 X110.175 Y74.307 E46.96017
G1 X112.398 Y76.529 E47.13197
G1 X112.398 Y115.224 E49.24748
G1 X112.381 Y115.472 E49.26106
G1 X112.230 Y116.618 E49.32424
G1 X112.102 Y117.098 E49.35143
G1 X111.611 Y118.282 E49.42149
G1 X111.363 Y118.712 E49.44864
G1 X110.584 Y119.728 E49.51862
G1 X110.232 Y120.079 E49.54581
G1 X109.216 Y120.859 E49.61581
G1 X108.786 Y121.108 E49.64299
G1 X107.604 Y121.597 E49.71294
G1 X107.123 Y121.726 E49.74016
G1 X105.977 Y121.877 E49.80332
G1 X105.729 Y121.893 E49.81694
G1 X46.480 Y121.893 E53.05611
G1 X46.232 Y121.877 E53.06970
G1 X45.086 Y121.726 E53.13290
G1 X44.605 Y121.597 E53.16011
G1 X43.423 Y121.107 E53.23008
G1 X42.992 Y120.859 E53.25728
G1 X41.976 Y120.079 E53.32727
G1 X41.624 Y119.727 E53.35447
G1 X40.845 Y118.712 E53.42446
G1 X40.596 Y118.280 E53.45168
G1 X40.107 Y117.099 E53.52161
G1 X39.978 Y116.619 E53.54876
G1 X39.827 Y115.472 E53.61201
G1 X39.811 Y115.224 E53.62559
G1 X39.811 Y80.976 E55.49795
G1 X39.827 Y80.729 E55.51149
G1 X39.978 Y79.582 E55.57474
G1 X40.107 Y79.102 E55.60191
G1 X40.597 Y77.919 E55.67193
G1 X40.845 Y77.488 E55.69912
G1 X41.625 Y76.472 E55.76912
G1 X41.976 Y76.121 E55.79630
G1 X42.992 Y75.341 E55.86630
G1 X43.379 Y75.118 E55.89069
G1 X43.629 Y75.551 F9000.000
G1 F2700
G1 X44.767 Y75.077 E55.95809
G1 X45.183 Y74.965 E55.98166
G1 X46.496 Y74.807 E56.05399
G1 X109.968 Y74.807 E59.52404
G1 X111.898 Y76.736 E59.67320
G1 X111.898 Y115.208 E61.77649
G1 X111.739 Y116.520 E61.84876
G1 X111.627 Y116.937 E61.87237
G1 X111.162 Y118.060 E61.93883
G1 X110.946 Y118.434 E61.96240
G1 X110.207 Y119.397 E62.02880
G1 X109.902 Y119.703 E62.05241
G1 X108.938 Y120.442 E62.11882
G1 X108.564 Y120.658 E62.14243
G1 X107.442 Y121.123 E62.20880
G1 X107.025 Y121.235 E62.23243
G1 X105.712 Y121.393 E62.30471
G1 X46.496 Y121.393 E65.54209
G1 X45.184 Y121.235 E65.61438
G1 X44.766 Y121.123 E65.63801
G1 X43.644 Y120.658 E65.70439
G1 X43.270 Y120.442 E65.72801
G1 X42.307 Y119.703 E65.79441
G1 X42.001 Y119.397 E65.81803
G1 X41.262 Y118.433 E65.88444
G1 X41.046 Y118.059 E65.90807
G1 X40.581 Y116.938 E65.97443
G1 X40.470 Y116.521 E65.99799
G1 X40.325 Y115.423 E66.05855
G1 X40.311 Y115.208 E66.07034
G1 X40.311 Y80.993 E67.94092
G1 X40.469 Y79.680 E68.01321
G1 X40.581 Y79.263 E68.03679
G1 X41.046 Y78.140 E68.10323
G1 X41.262 Y77.766 E68.12684
G1 X42.002 Y76.803 E68.19325
G1 X42.307 Y76.497 E68.21685
G1 X43.271 Y75.758 E68.28327
G1 X43.577 Y75.581 E68.30259
G1 X43.827 Y76.014 F9000.000
G1 F2700
G1 X44.928 Y75.552 E68.36788
G1 X45.281 Y75.457 E68.38787
G1 X46.513 Y75.307 E68.45572
G1 X109.761 Y75.307 E71.91356
G1 X111.398 Y76.943 E72.04007
G1 X111.398 Y115.191 E74.13114
G1 X111.248 Y116.422 E74.19894
G1 X111.153 Y116.776 E74.21896
G1 X110.713 Y117.839 E74.28184
G1 X110.530 Y118.155 E74.30183
G1 X109.830 Y119.067 E74.36465
G1 X109.571 Y119.326 E74.38467
G1 X108.659 Y120.026 E74.44750
G1 X108.342 Y120.209 E74.46752
G1 X107.281 Y120.648 E74.53032
G1 X106.927 Y120.743 E74.55036
G1 X105.696 Y120.893 E74.61816
G1 X46.513 Y120.893 E77.85376
G1 X45.281 Y120.743 E77.92157
G1 X44.927 Y120.648 E77.94161
G1 X43.866 Y120.209 E78.00442
G1 X43.549 Y120.025 E78.02445
G1 X42.637 Y119.326 E78.08727
G1 X42.378 Y119.067 E78.10730
G1 X41.678 Y118.155 E78.17013
G1 X41.495 Y117.837 E78.19017
G1 X41.056 Y116.777 E78.25295
G1 X40.961 Y116.423 E78.27294
G1 X40.823 Y115.374 E78.33081
G1 X40.811 Y81.009 E80.20958
G1 X40.961 Y79.778 E80.27739
G1 X41.056 Y79.424 E80.29740
G1 X41.496 Y78.362 E80.36025
G1 X41.679 Y78.045 E80.38027
G1 X42.378 Y77.133 E80.44310
G1 X42.637 Y76.874 E80.46312
G1 X43.549 Y76.174 E80.52595
G1 X43.775 Y76.044 E80.54020
G1 X44.025 Y76.477 F9000.000
G1 F2700
G1 X45.089 Y76.026 E80.60339
G1 X45.379 Y75.948 E80.61980
G1 X46.529 Y75.807 E80.68317
G1 X109.554 Y75.807 E84.12879
G1 X110.898 Y77.150 E84.23265
G1 X110.898 Y115.175 E86.31151
G1 X110.756 Y116.325 E86.37483
G1 X110.678 Y116.615 E86.39127
G1 X110.263 Y117.617 E86.45056
G1 X110.113 Y117.877 E86.46697
G1 X109.453 Y118.737 E86.52621
G1 X109.241 Y118.949 E86.54265
G1 X108.381 Y119.609 E86.60190
G1 X108.121 Y119.759 E86.61833
G1 X107.120 Y120.174 E86.67755
G1 X106.829 Y120.252 E86.69401
G1 X105.680 Y120.393 E86.75734
G1 X46.529 Y120.393 E89.99114
G1 X45.379 Y120.252 E90.05447
G1 X45.089 Y120.174 E90.07093
G1 X44.088 Y119.759 E90.13016
G1 X43.827 Y119.609 E90.14660
G1 X42.968 Y118.949 E90.20584
G1 X42.755 Y118.736 E90.22229
G1 X42.095 Y117.877 E90.28153
G1 X41.945 Y117.616 E90.29799
G1 X41.530 Y116.615 E90.35720
G1 X41.453 Y116.325 E90.37361
G1 X41.311 Y115.175 E90.43697
G1 X41.311 Y81.025 E92.30398
G1 X41.452 Y79.875 E92.36732
G1 X41.530 Y79.585 E92.38374
G1 X41.945 Y78.584 E92.44301
G1 X42.095 Y78.323 E92.45944
G1 X42.755 Y77.463 E92.51869
G1 X42.968 Y77.251 E92.53513
G1 X43.827 Y76.591 E92.59438
G1 X43.973 Y76.507 E92.60355
G1 X44.223 Y76.940 F9000.000
G1 F2700
G1 X45.250 Y76.501 E92.66464
G1 X45.477 Y76.440 E92.67747
G1 X46.546 Y76.307 E92.73636
G1 X109.347 Y76.307 E96.16976
G1 X110.398 Y77.357 E96.25098
G1 X110.398 Y115.159 E98.31762
G1 X110.265 Y116.227 E98.37647
G1 X110.204 Y116.454 E98.38933
G1 X109.814 Y117.395 E98.44502
G1 X109.696 Y117.599 E98.45785
G1 X109.077 Y118.406 E98.51351
G1 X108.910 Y118.573 E98.52637
G1 X108.103 Y119.192 E98.58203
G1 X107.899 Y119.310 E98.59489
G1 X106.959 Y119.699 E98.65053
G1 X106.731 Y119.760 E98.66340
G1 X105.663 Y119.893 E98.72225
G1 X46.545 Y119.893 E101.95426
G1 X45.477 Y119.760 E102.01312
G1 X45.250 Y119.699 E102.02599
G1 X44.309 Y119.310 E102.08164
G1 X44.106 Y119.192 E102.09450
G1 X43.298 Y118.572 E102.15016
G1 X43.132 Y118.406 E102.16302
G1 X42.512 Y117.598 E102.21868
G1 X42.394 Y117.394 E102.23155
G1 X42.005 Y116.454 E102.28718
G1 X41.944 Y116.228 E102.30002
G1 X41.811 Y115.159 E102.35890
G1 X41.811 Y81.041 E104.22412
G1 X41.944 Y79.973 E104.28298
G1 X42.005 Y79.746 E104.29583
G1 X42.394 Y78.805 E104.35150
G1 X42.512 Y78.602 E104.36436
G1 X43.132 Y77.794 E104.42002
G1 X43.298 Y77.628 E104.43288
G1 X44.171 Y76.970 E104.49262
G1 X44.421 Y77.403 F9000.000
G1 F2700
G1 X44.531 Y77.340 E104.49957
G1 X45.411 Y76.975 E104.55165
G1 X45.575 Y76.931 E104.56091
G1 X46.562 Y76.807 E104.61531
G1 X109.140 Y76.807 E108.03650
G1 X109.898 Y77.564 E108.09507
G1 X109.898 Y115.142 E110.14949
G1 X109.773 Y116.129 E110.20387
G1 X109.729 Y116.293 E110.21314
G1 X109.365 Y117.174 E110.26524
G1 X109.280 Y117.320 E110.27450
G1 X108.700 Y118.076 E110.32658
G1 X108.580 Y118.196 E110.33585
G1 X107.824 Y118.776 E110.38793
G1 X107.677 Y118.861 E110.39720
G1 X106.798 Y119.225 E110.44927
G1 X106.634 Y119.269 E110.45855
G1 X105.647 Y119.393 E110.51293
G1 X46.562 Y119.393 E113.74314
G1 X45.575 Y119.269 E113.79753
G1 X45.411 Y119.225 E113.80681
G1 X44.531 Y118.860 E113.85888
G1 X44.384 Y118.776 E113.86816
G1 X43.628 Y118.196 E113.92024
G1 X43.508 Y118.076 E113.92951
G1 X42.928 Y117.320 E113.98159
G1 X42.844 Y117.173 E113.99087
G1 X42.479 Y116.293 E114.04293
G1 X42.435 Y116.130 E114.05219
G1 X42.311 Y115.142 E114.10659
G1 X42.311 Y81.058 E115.97002
G1 X42.435 Y80.071 E116.02441
G1 X42.479 Y79.907 E116.03367
G1 X42.844 Y79.027 E116.08576
G1 X42.929 Y78.880 E116.09503
G1 X43.508 Y78.124 E116.14712
G1 X43.628 Y78.004 E116.15639
G1 X44.370 Y77.435 E116.20751
G1 X44.663 Y77.841 F9000.000
G1 F2700
G1 X45.572 Y77.449 E116.26165
G1 X45.672 Y77.423 E116.26732
G1 X46.578 Y77.307 E116.31725
G1 X108.933 Y77.307 E119.72622
G1 X109.398 Y77.771 E119.76215
G1 X109.398 Y115.126 E121.80435
G1 X109.282 Y116.032 E121.85426
G1 X109.255 Y116.132 E121.85994
G1 X108.863 Y117.042 E121.91409
G1 X108.250 Y117.819 E121.96823
G1 X107.456 Y118.411 E122.02237
G1 X106.536 Y118.778 E122.07651
G1 X105.630 Y118.893 E122.12642
G1 X46.578 Y118.893 E125.35484
G1 X45.673 Y118.778 E125.40476
G1 X45.572 Y118.751 E125.41045
G1 X44.662 Y118.359 E125.46459
G1 X43.885 Y117.745 E125.51873
G1 X43.293 Y116.951 E125.57288
G1 X42.927 Y116.032 E125.62700
G1 X42.811 Y115.126 E125.67692
G1 X42.811 Y81.074 E127.53856
G1 X42.927 Y80.168 E127.58848
G1 X43.293 Y79.248 E127.64262
G1 X43.885 Y78.455 E127.69676
G1 X44.615 Y77.877 E127.74763
G1 X44.919 Y78.274 F9000.000
G1 F2700
G1 X45.733 Y77.924 E127.79607
G1 X46.595 Y77.807 E127.84359
G1 X108.726 Y77.807 E131.24035
G1 X108.898 Y77.979 E131.25363
G1 X108.898 Y115.110 E133.28361
G1 X108.780 Y115.971 E133.33114
G1 X108.447 Y116.763 E133.37814
G1 X107.919 Y117.442 E133.42514
G1 X107.234 Y117.962 E133.47215
G1 X106.438 Y118.286 E133.51915
G1 X105.614 Y118.393 E133.56459
G1 X46.595 Y118.393 E136.79121
G1 X45.733 Y118.276 E136.83874
G1 X44.941 Y117.942 E136.88574
G1 X44.262 Y117.415 E136.93274
G1 X43.743 Y116.730 E136.97975
G1 X43.418 Y115.934 E137.02674
G1 X43.311 Y115.110 E137.07218
G1 X43.311 Y81.090 E138.93204
G1 X43.418 Y80.266 E138.97748
G1 X43.743 Y79.470 E139.02448
G1 X44.262 Y78.785 E139.07148
G1 X44.872 Y78.311 E139.11372
G1 X45.209 Y78.750 F9000.000
G1 F1800
G1 X45.896 Y78.456 E139.15165
G1 X46.621 Y78.360 E139.18880
G1 X108.344 Y78.360 E142.32165
G1 X108.344 Y115.083 E144.18559
G1 X108.249 Y115.809 E144.22274
G1 X107.977 Y116.465 E144.25881
G1 X107.540 Y117.036 E144.29529
G1 X106.973 Y117.471 E144.33156
G1 X106.313 Y117.744 E144.36783
G1 X105.587 Y117.840 E144.40498
G1 X46.621 Y117.840 E147.39790
G1 X45.896 Y117.744 E147.43504
G1 X45.235 Y117.471 E147.47132
G1 X44.668 Y117.036 E147.50760
