; generated by Slic3r 1.3.0 on 2020-10-18 at 17:03:00

; external perimeters extrusion width = 0.44mm (3.18mm^3/s)
; perimeters extrusion width = 0.56mm (8.27mm^3/s)
; infill extrusion width = 0.50mm (8.23mm^3/s)
; solid infill extrusion width = 0.56mm (4.14mm^3/s)
; top infill extrusion width = 0.56mm (3.10mm^3/s)

M104 S190 ; set temperature
G90   ;absolute positioning
M106 S250 ;fan on for the palpeur
G28 X Y
G1 X50
G28
G29
M107 ;start with the fan off
G1 X100 Y20 F3000
G1 Z0.5
M82 ;set extruder to absolute mode
G92 E0 ;zero the extruded length
G1 F200 E10 ;extrude 10mm of feed stock
G92 E0 ;zero the extruded length again
G1 Z3
G1 F3600
; Filament gcode

M109 S190 ; set temperature and wait for it to be reached
G21 ; set units to millimeters
G90 ; use absolute coordinates
M82 ; use absolute distances for extrusion
G92 E0
M106 S91.8
G1 E-4.50000 F3300.00000
G92 E0
G1 Z0.260 F9000.000
G1 X37.627 Y76.914 F9000.000
G1 E4.50000 F3300.00000
G1 F2700
G1 X38.351 Y76.614 E4.53976
G1 X40.990 Y75.907 E4.67841
G1 X41.766 Y75.805 E4.71816
G1 X43.132 Y75.715 E4.78764
G1 X105.132 Y75.715 E7.93455
G1 X107.991 Y76.113 E8.08106
G1 X110.632 Y77.277 E8.22756
G1 X112.855 Y79.118 E8.37406
G1 X114.490 Y81.497 E8.52057
G1 X115.413 Y84.232 E8.66707
G1 X115.596 Y86.179 E8.76636
G1 X115.596 Y123.179 E10.64436
G1 X115.507 Y124.545 E10.71383
G1 X115.405 Y125.322 E10.75358
G1 X114.698 Y127.960 E10.89223
G1 X114.398 Y128.684 E10.93198
G1 X113.032 Y131.049 E11.07063
G1 X112.555 Y131.671 E11.11038
G1 X110.624 Y133.602 E11.24904
G1 X110.002 Y134.079 E11.28879
G1 X107.637 Y135.445 E11.42744
G1 X106.913 Y135.745 E11.46722
G1 X104.274 Y136.452 E11.60584
G1 X103.498 Y136.554 E11.64559
G1 X102.132 Y136.643 E11.71507
G1 X43.132 Y136.643 E14.70972
G1 X41.766 Y136.554 E14.77919
G1 X40.990 Y136.452 E14.81894
G1 X38.351 Y135.745 E14.95759
G1 X37.628 Y135.445 E14.99734
G1 X35.262 Y134.079 E15.13600
G1 X34.640 Y133.602 E15.17580
G1 X32.709 Y131.671 E15.31440
G1 X32.232 Y131.049 E15.35417
G1 X30.866 Y128.684 E15.49280
G1 X30.567 Y127.960 E15.53255
G1 X29.860 Y125.322 E15.67121
G1 X29.757 Y124.544 E15.71101
G1 X29.668 Y123.179 E15.78043
G1 X29.668 Y89.179 E17.50616
G1 X29.757 Y87.814 E17.57558
G1 X29.860 Y87.037 E17.61538
G1 X30.566 Y84.399 E17.75401
G1 X30.866 Y83.675 E17.79379
G1 X32.232 Y81.309 E17.93243
G1 X32.709 Y80.688 E17.97219
G1 X34.641 Y78.756 E18.11084
G1 X35.262 Y78.279 E18.15059
G1 X37.576 Y76.944 E18.28619
G1 E13.78619 F3300.00000
G92 E0
G1 X39.551 Y81.714 F9000.000
G1 E4.50000 F3300.00000
G1 F2700
G1 X40.651 Y81.258 E4.56504
G1 X41.321 Y81.079 E4.60298
G1 X42.613 Y80.909 E4.67423
G1 X42.959 Y80.886 E4.69318
G1 X107.325 Y80.886 E8.21211
G1 X110.425 Y83.987 E8.45184
G1 X110.425 Y123.353 E10.60401
G1 X110.403 Y123.699 E10.62298
G1 X110.233 Y124.991 E10.69421
G1 X110.053 Y125.661 E10.73214
G1 X109.488 Y127.025 E10.81287
G1 X109.141 Y127.626 E10.85082
G1 X108.242 Y128.798 E10.93154
G1 X107.751 Y129.289 E10.96950
G1 X106.579 Y130.188 E11.05025
G1 X105.978 Y130.535 E11.08820
G1 X104.613 Y131.100 E11.16896
G1 X103.943 Y131.280 E11.20689
G1 X102.652 Y131.450 E11.27812
G1 X102.306 Y131.473 E11.29708
G1 X42.959 Y131.473 E14.54162
G1 X42.613 Y131.450 E14.56058
G1 X41.321 Y131.280 E14.63182
G1 X40.650 Y131.100 E14.66975
G1 X39.286 Y130.535 E14.75048
G1 X38.685 Y130.188 E14.78843
G1 X37.513 Y129.289 E14.86921
G1 X37.022 Y128.798 E14.90713
G1 X36.123 Y127.626 E14.98788
G1 X35.776 Y127.025 E15.02581
G1 X35.211 Y125.661 E15.10656
G1 X35.032 Y124.991 E15.14449
G1 X34.861 Y123.698 E15.21577
G1 X34.839 Y123.352 E15.23470
G1 X34.839 Y89.006 E17.11244
G1 X34.861 Y88.660 E17.13138
G1 X35.032 Y87.368 E17.20265
G1 X35.211 Y86.698 E17.24058
G1 X35.776 Y85.333 E17.32134
G1 X36.123 Y84.732 E17.35927
G1 X37.023 Y83.560 E17.44003
G1 X37.513 Y83.070 E17.47796
G1 X38.685 Y82.170 E17.55871
G1 X39.286 Y81.824 E17.59664
G1 X39.496 Y81.737 E17.60908
G1 X39.687 Y82.198 F9000.000
G1 F2700
G1 X40.812 Y81.733 E17.67561
G1 X41.419 Y81.570 E17.70996
G1 X42.662 Y81.406 E17.77853
G1 X42.975 Y81.386 E17.79569
G1 X107.118 Y81.386 E21.30240
G1 X109.925 Y84.194 E21.51949
G1 X109.925 Y123.336 E23.65944
G1 X109.905 Y123.650 E23.67661
G1 X109.741 Y124.893 E23.74516
G1 X109.579 Y125.500 E23.77951
G1 X109.038 Y126.803 E23.85666
G1 X108.724 Y127.348 E23.89102
G1 X107.865 Y128.467 E23.96816
G1 X107.421 Y128.912 E24.00254
G1 X106.301 Y129.771 E24.07970
G1 X105.757 Y130.085 E24.11406
G1 X104.452 Y130.626 E24.19124
G1 X103.846 Y130.788 E24.22559
G1 X102.603 Y130.952 E24.29413
G1 X102.289 Y130.973 E24.31131
G1 X42.975 Y130.973 E27.55405
G1 X42.662 Y130.952 E27.57123
G1 X41.418 Y130.788 E27.63977
G1 X40.812 Y130.626 E27.67413
G1 X39.508 Y130.086 E27.75127
G1 X38.963 Y129.771 E27.78564
G1 X37.843 Y128.912 E27.86283
G1 X37.399 Y128.468 E27.89717
G1 X36.540 Y127.348 E27.97434
G1 X36.226 Y126.804 E28.00869
G1 X35.686 Y125.500 E28.08585
G1 X35.523 Y124.893 E28.12020
G1 X35.359 Y123.649 E28.18879
G1 X35.339 Y123.336 E28.20594
G1 X35.339 Y89.022 E30.08189
G1 X35.359 Y88.709 E30.09903
G1 X35.523 Y87.466 E30.16762
G1 X35.686 Y86.859 E30.20196
G1 X36.226 Y85.555 E30.27914
G1 X36.540 Y85.011 E30.31349
G1 X37.399 Y83.891 E30.39066
G1 X37.844 Y83.446 E30.42501
G1 X38.963 Y82.587 E30.50218
G1 X39.507 Y82.273 E30.53653
G1 X39.632 Y82.221 E30.54389
G1 X39.823 Y82.683 F9000.000
G1 F2700
G1 X40.973 Y82.207 E30.61191
G1 X41.516 Y82.062 E30.64268
G1 X42.711 Y81.904 E30.70856
G1 X42.992 Y81.886 E30.72393
G1 X106.910 Y81.886 E34.21842
G1 X109.425 Y84.401 E34.41286
G1 X109.425 Y123.320 E36.54060
G1 X109.407 Y123.601 E36.55598
G1 X109.250 Y124.795 E36.62184
G1 X109.104 Y125.339 E36.65261
G1 X108.589 Y126.582 E36.72618
G1 X108.308 Y127.069 E36.75696
G1 X107.489 Y128.137 E36.83051
G1 X107.090 Y128.535 E36.86130
G1 X106.023 Y129.355 E36.93489
G1 X105.535 Y129.636 E36.96566
G1 X104.291 Y130.151 E37.03926
G1 X103.748 Y130.297 E37.07002
G1 X102.553 Y130.454 E37.13588
G1 X102.273 Y130.473 E37.15127
G1 X42.991 Y130.473 E40.39222
G1 X42.711 Y130.454 E40.40760
G1 X41.516 Y130.297 E40.47346
G1 X40.973 Y130.151 E40.50423
G1 X39.729 Y129.636 E40.57780
G1 X39.242 Y129.355 E40.60858
G1 X38.174 Y128.535 E40.68219
G1 X37.776 Y128.137 E40.71294
G1 X36.957 Y127.069 E40.78653
G1 X36.675 Y126.582 E40.81729
G1 X36.160 Y125.339 E40.89087
G1 X36.014 Y124.795 E40.92164
G1 X35.857 Y123.600 E40.98754
G1 X35.839 Y123.320 E41.00290
G1 X35.839 Y89.039 E42.87706
G1 X35.857 Y88.758 E42.89242
G1 X36.014 Y87.563 E42.95832
G1 X36.160 Y87.020 E42.98908
G1 X36.675 Y85.776 E43.06267
G1 X36.957 Y85.289 E43.09344
G1 X37.776 Y84.221 E43.16702
G1 X38.174 Y83.823 E43.19779
G1 X39.242 Y83.004 E43.27138
G1 X39.768 Y82.706 E43.30442
G1 X39.959 Y83.168 F9000.000
G1 F2700
G1 X41.134 Y82.682 E43.37392
G1 X41.614 Y82.553 E43.40111
G1 X42.760 Y82.402 E43.46430
G1 X43.008 Y82.386 E43.47788
G1 X106.703 Y82.386 E46.96016
G1 X108.925 Y84.608 E47.13196
G1 X108.925 Y123.303 E49.24747
G1 X108.909 Y123.552 E49.26106
G1 X108.758 Y124.697 E49.32424
G1 X108.630 Y125.178 E49.35142
G1 X108.140 Y126.360 E49.42141
G1 X107.891 Y126.791 E49.44861
G1 X107.112 Y127.807 E49.51858
G1 X106.760 Y128.158 E49.54579
G1 X105.744 Y128.938 E49.61579
G1 X105.313 Y129.187 E49.64298
G1 X104.130 Y129.677 E49.71299
G1 X103.650 Y129.805 E49.74017
G1 X102.504 Y129.956 E49.80335
G1 X102.256 Y129.973 E49.81694
G1 X43.008 Y129.973 E53.05610
G1 X42.760 Y129.956 E53.06969
G1 X41.614 Y129.805 E53.13287
G1 X41.134 Y129.677 E53.16006
G1 X39.951 Y129.187 E53.23004
G1 X39.520 Y128.938 E53.25724
G1 X38.504 Y128.158 E53.32726
G1 X38.153 Y127.807 E53.35443
G1 X37.373 Y126.791 E53.42444
G1 X37.125 Y126.361 E53.45162
G1 X36.635 Y125.178 E53.52161
G1 X36.506 Y124.697 E53.54880
G1 X36.355 Y123.551 E53.61201
G1 X36.339 Y123.303 E53.62558
G1 X36.339 Y89.055 E55.49795
G1 X36.355 Y88.807 E55.51152
G1 X36.506 Y87.661 E55.57473
G1 X36.635 Y87.181 E55.60191
G1 X37.125 Y85.998 E55.67192
G1 X37.373 Y85.567 E55.69910
G1 X38.153 Y84.551 E55.76911
G1 X38.504 Y84.200 E55.79629
G1 X39.520 Y83.420 E55.86629
G1 X39.907 Y83.197 E55.89069
G1 X40.157 Y83.630 F9000.000
G1 F2700
G1 X41.295 Y83.156 E55.95810
G1 X41.712 Y83.044 E55.98170
G1 X43.024 Y82.886 E56.05397
G1 X106.496 Y82.886 E59.52403
G1 X108.425 Y84.815 E59.67319
G1 X108.425 Y123.287 E61.77648
G1 X108.267 Y124.600 E61.84876
G1 X108.155 Y125.017 E61.87236
G1 X107.690 Y126.139 E61.93876
G1 X107.474 Y126.513 E61.96237
G1 X106.735 Y127.476 E62.02877
G1 X106.430 Y127.782 E62.05239
G1 X105.466 Y128.521 E62.11881
G1 X105.092 Y128.737 E62.14241
G1 X103.969 Y129.202 E62.20884
G1 X103.552 Y129.314 E62.23244
G1 X102.240 Y129.473 E62.30471
G1 X43.024 Y129.473 E65.54208
G1 X41.712 Y129.314 E65.61435
G1 X41.295 Y129.202 E65.63795
G1 X40.173 Y128.737 E65.70436
G1 X39.799 Y128.521 E65.72797
G1 X38.834 Y127.782 E65.79441
G1 X38.529 Y127.477 E65.81800
G1 X37.790 Y126.513 E65.88442
G1 X37.574 Y126.139 E65.90801
G1 X37.109 Y125.017 E65.97443
G1 X36.997 Y124.600 E65.99803
G1 X36.853 Y123.502 E66.05856
G1 X36.839 Y123.287 E66.07034
G1 X36.839 Y89.071 E67.94092
G1 X36.997 Y87.759 E68.01320
G1 X37.109 Y87.342 E68.03680
G1 X37.574 Y86.220 E68.10322
G1 X37.790 Y85.846 E68.12682
G1 X38.529 Y84.882 E68.19324
G1 X38.835 Y84.577 E68.21684
G1 X39.798 Y83.837 E68.28326
G1 X40.105 Y83.660 E68.30259
G1 X40.355 Y84.093 F9000.000
G1 F2700
G1 X41.456 Y83.631 E68.36789
G1 X41.810 Y83.536 E68.38791
G1 X43.041 Y83.386 E68.45571
G1 X106.289 Y83.386 E71.91355
G1 X107.925 Y85.022 E72.04006
G1 X107.925 Y123.271 E74.13113
G1 X107.775 Y124.502 E74.19894
G1 X107.681 Y124.855 E74.21895
G1 X107.241 Y125.917 E74.28178
G1 X107.058 Y126.234 E74.30180
G1 X106.358 Y127.146 E74.36462
G1 X106.099 Y127.405 E74.38465
G1 X105.187 Y128.105 E74.44749
G1 X104.870 Y128.288 E74.46751
G1 X103.808 Y128.728 E74.53035
G1 X103.455 Y128.822 E74.55037
G1 X102.224 Y128.973 E74.61816
G1 X43.041 Y128.973 E77.85375
G1 X41.810 Y128.822 E77.92155
G1 X41.456 Y128.728 E77.94156
G1 X40.394 Y128.288 E78.00439
G1 X40.077 Y128.105 E78.02441
G1 X39.165 Y127.405 E78.08726
G1 X38.906 Y127.146 E78.10727
G1 X38.206 Y126.234 E78.17011
G1 X38.023 Y125.917 E78.19012
G1 X37.584 Y124.855 E78.25296
G1 X37.489 Y124.502 E78.27298
G1 X37.351 Y123.453 E78.33081
G1 X37.339 Y89.088 E80.20958
G1 X37.489 Y87.857 E80.27738
G1 X37.584 Y87.503 E80.29740
G1 X38.023 Y86.441 E80.36024
G1 X38.206 Y86.124 E80.38026
G1 X38.906 Y85.212 E80.44309
G1 X39.165 Y84.953 E80.46311
G1 X40.077 Y84.254 E80.52594
G1 X40.303 Y84.123 E80.54020
G1 X40.553 Y84.556 F9000.000
G1 F2700
G1 X41.617 Y84.105 E80.60339
G1 X41.907 Y84.027 E80.61983
G1 X43.057 Y83.886 E80.68316
G1 X106.082 Y83.886 E84.12878
G1 X107.425 Y85.229 E84.23264
G1 X107.425 Y123.254 E86.31150
G1 X107.284 Y124.404 E86.37483
G1 X107.206 Y124.694 E86.39126
G1 X106.791 Y125.696 E86.45051
G1 X106.641 Y125.956 E86.46695
G1 X105.982 Y126.816 E86.52618
G1 X105.769 Y127.028 E86.54263
G1 X104.909 Y127.688 E86.60188
G1 X104.649 Y127.838 E86.61832
G1 X103.647 Y128.253 E86.67758
G1 X103.357 Y128.331 E86.69401
G1 X102.207 Y128.473 E86.75734
G1 X43.057 Y128.473 E89.99113
G1 X41.907 Y128.331 E90.05445
G1 X41.617 Y128.253 E90.07089
G1 X40.616 Y127.839 E90.13013
G1 X40.355 Y127.688 E90.14657
G1 X39.495 Y127.028 E90.20584
G1 X39.283 Y126.816 E90.22226
G1 X38.623 Y125.956 E90.28152
G1 X38.473 Y125.696 E90.29795
G1 X38.058 Y124.694 E90.35720
G1 X37.980 Y124.404 E90.37363
G1 X37.839 Y123.254 E90.43697
G1 X37.839 Y89.104 E92.30398
G1 X37.980 Y87.954 E92.36731
G1 X38.058 Y87.664 E92.38374
G1 X38.473 Y86.663 E92.44300
G1 X38.623 Y86.402 E92.45943
G1 X39.283 Y85.543 E92.51868
G1 X39.495 Y85.330 E92.53512
G1 X40.355 Y84.670 E92.59437
G1 X40.501 Y84.586 E92.60356
G1 X40.751 Y85.019 F9000.000
G1 F2700
G1 X41.778 Y84.580 E92.66464
G1 X42.005 Y84.519 E92.67749
G1 X43.073 Y84.386 E92.73635
G1 X105.875 Y84.386 E96.16975
G1 X106.925 Y85.436 E96.25097
G1 X106.925 Y123.238 E98.31761
G1 X106.792 Y124.306 E98.37647
G1 X106.732 Y124.533 E98.38932
G1 X106.342 Y125.474 E98.44498
G1 X106.224 Y125.678 E98.45784
G1 X105.605 Y126.485 E98.51349
G1 X105.438 Y126.652 E98.52635
G1 X104.631 Y127.272 E98.58202
G1 X104.427 Y127.389 E98.59488
G1 X103.486 Y127.779 E98.65055
G1 X103.259 Y127.840 E98.66340
G1 X102.191 Y127.973 E98.72225
G1 X43.073 Y127.973 E101.95425
G1 X42.005 Y127.840 E102.01311
G1 X41.778 Y127.779 E102.02596
G1 X40.837 Y127.389 E102.08162
G1 X40.634 Y127.272 E102.09447
G1 X39.826 Y126.652 E102.15015
G1 X39.660 Y126.485 E102.16300
G1 X39.040 Y125.678 E102.21867
G1 X38.922 Y125.474 E102.23152
G1 X38.533 Y124.533 E102.28718
G1 X38.472 Y124.306 E102.30004
G1 X38.339 Y123.238 E102.35890
G1 X38.339 Y89.121 E104.22412
G1 X38.472 Y88.052 E104.28298
G1 X38.533 Y87.825 E104.29582
G1 X38.922 Y86.884 E104.35150
G1 X39.040 Y86.681 E104.36435
G1 X39.660 Y85.873 E104.42002
G1 X39.826 Y85.707 E104.43287
G1 X40.699 Y85.049 E104.49262
G1 X40.949 Y85.482 F9000.000
G1 F2700
G1 X41.059 Y85.419 E104.49956
G1 X41.939 Y85.054 E104.55165
G1 X42.103 Y85.010 E104.56092
G1 X43.090 Y84.886 E104.61530
G1 X105.668 Y84.886 E108.03649
G1 X106.425 Y85.644 E108.09506
G1 X106.425 Y123.222 E110.14948
G1 X106.301 Y124.209 E110.20387
G1 X106.257 Y124.372 E110.21314
G1 X105.893 Y125.252 E110.26521
G1 X105.808 Y125.399 E110.27449
G1 X105.228 Y126.155 E110.32656
G1 X105.108 Y126.275 E110.33584
G1 X104.352 Y126.855 E110.38792
G1 X104.205 Y126.940 E110.39719
G1 X103.325 Y127.304 E110.44928
G1 X103.161 Y127.348 E110.45855
G1 X102.174 Y127.473 E110.51293
G1 X43.090 Y127.473 E113.74314
G1 X42.103 Y127.348 E113.79752
G1 X41.939 Y127.304 E113.80679
G1 X41.059 Y126.940 E113.85887
G1 X40.912 Y126.855 E113.86814
G1 X40.156 Y126.275 E113.92023
G1 X40.036 Y126.155 E113.92950
G1 X39.456 Y125.399 E113.98158
G1 X39.372 Y125.252 E113.99085
G1 X39.007 Y124.372 E114.04293
G1 X38.963 Y124.209 E114.05220
G1 X38.839 Y123.222 E114.10659
G1 X38.839 Y89.137 E115.97002
G1 X38.963 Y88.150 E116.02440
G1 X39.007 Y87.986 E116.03367
G1 X39.372 Y87.106 E116.08576
G1 X39.456 Y86.959 E116.09503
G1 X40.036 Y86.203 E116.14711
G1 X40.156 Y86.083 E116.15638
G1 X40.898 Y85.514 E116.20751
G1 X41.190 Y85.920 F9000.000
G1 F2700
G1 X42.100 Y85.529 E116.26165
G1 X42.201 Y85.502 E116.26734
G1 X43.106 Y85.386 E116.31725
G1 X105.461 Y85.386 E119.72622
G1 X105.925 Y85.851 E119.76215
G1 X105.925 Y123.205 E121.80435
G1 X105.810 Y124.111 E121.85426
G1 X105.783 Y124.211 E121.85994
G1 X105.391 Y125.121 E121.91409
G1 X104.778 Y125.898 E121.96823
G1 X103.984 Y126.490 E122.02237
G1 X103.064 Y126.857 E122.07652
G1 X102.158 Y126.973 E122.12643
G1 X43.106 Y126.973 E125.35484
G1 X42.201 Y126.857 E125.40475
G1 X42.100 Y126.830 E125.41044
G1 X41.190 Y126.438 E125.46458
G1 X40.413 Y125.825 E125.51872
G1 X39.821 Y125.031 E125.57287
G1 X39.455 Y124.111 E125.62701
G1 X39.339 Y123.205 E125.67692
G1 X39.339 Y89.153 E127.53857
G1 X39.455 Y88.248 E127.58848
G1 X39.821 Y87.328 E127.64262
G1 X40.413 Y86.534 E127.69676
G1 X41.143 Y85.957 E127.74763
G1 X41.447 Y86.353 F9000.000
G1 F2700
G1 X42.261 Y86.003 E127.79607
G1 X43.122 Y85.886 E127.84359
G1 X105.254 Y85.886 E131.24035
G1 X105.425 Y86.058 E131.25363
G1 X105.425 Y123.189 E133.28362
G1 X105.308 Y124.050 E133.33114
G1 X104.975 Y124.843 E133.37814
G1 X104.447 Y125.522 E133.42514
G1 X103.762 Y126.041 E133.47215
G1 X102.966 Y126.365 E133.51915
G1 X102.142 Y126.473 E133.56459
G1 X43.122 Y126.473 E136.79121
G1 X42.261 Y126.355 E136.83873
G1 X41.469 Y126.022 E136.88574
G1 X40.790 Y125.494 E136.93274
G1 X40.270 Y124.809 E136.97974
G1 X39.946 Y124.013 E137.02674
G1 X39.839 Y123.189 E137.07218
G1 X39.839 Y89.170 E138.93204
G1 X39.946 Y88.345 E138.97748
G1 X40.270 Y87.549 E139.02448
G1 X40.790 Y86.864 E139.07148
G1 X41.400 Y86.390 E139.11372
G1 X41.736 Y86.829 F9000.000
G1 F1800
G1 X42.423 Y86.535 E139.15165
G1 X43.149 Y86.439 E139.18880
G1 X104.872 Y86.439 E142.32165
G1 X104.872 Y123.162 E144.18559
G1 X104.777 Y123.888 E144.22274
G1 X104.503 Y124.548 E144.25901
G1 X104.068 Y125.115 E144.29529
G1 X103.501 Y125.550 E144.33156
G1 X102.841 Y125.824 E144.36784
G1 X102.115 Y125.919 E144.40499
G1 X43.149 Y125.919 E147.39790
G1 X42.423 Y125.824 E147.43505
G1 X41.763 Y125.550 E147.47133
G1 X41.196 Y125.115 E147.50760
