; generated by Slic3r 1.3.0 on 2020-09-23 at 17:25:03

; external perimeters extrusion width = 0.44mm (0.63mm^3/s)
; perimeters extrusion width = 0.56mm (1.62mm^3/s)
; infill extrusion width = 0.50mm (1.91mm^3/s)
; solid infill extrusion width = 0.56mm (1.08mm^3/s)
; top infill extrusion width = 0.56mm (0.81mm^3/s)

M104 S190 ; set temperature
G90   ;absolute positioning
M106 S250 ;fan on for the palpeur
G28 X Y
G1 X50
G28
G29
M107 ;start with the fan off
G1 X100 Y20 F3000
G1 Z0.5
M82 ;set extruder to absolute mode
G92 E0 ;zero the extruded length
G1 F200 E10 ;extrude 10mm of feed stock
G92 E0 ;zero the extruded length again
G1 Z3
G1 F3600
; Filament gcode

M109 S190 ; set temperature and wait for it to be reached
G21 ; set units to millimeters
G90 ; use absolute coordinates
M82 ; use absolute distances for extrusion
G92 E0
M106 S91.8
G1 E-4.50000 F3300.00000
G92 E0
G1 Z0.130 F9000.000
G1 X66.508 Y78.328 F9000.000
G1 E4.50000 F3300.00000
G1 F1800
G1 X68.246 Y76.940 E4.52822
G1 X71.203 Y76.194 E4.56693
G1 X81.203 Y76.194 E4.69382
G1 X83.392 Y76.591 E4.72204
G1 X85.301 Y77.730 E4.75026
G1 X86.689 Y79.468 E4.77848
G1 X87.436 Y82.426 E4.81719
G1 X87.436 Y117.426 E5.26131
G1 X87.039 Y119.614 E5.28953
G1 X85.899 Y121.524 E5.31774
G1 X84.161 Y122.911 E5.34596
G1 X81.203 Y123.658 E5.38467
G1 X71.203 Y123.658 E5.51156
G1 X69.015 Y123.261 E5.53978
G1 X67.106 Y122.121 E5.56800
G1 X65.718 Y120.384 E5.59622
G1 X64.971 Y117.426 E5.63493
G1 X64.971 Y82.426 E6.07905
G1 X65.368 Y80.238 E6.10727
G1 X66.477 Y78.380 E6.13473
G1 E1.63473 F3300.00000
G92 E0
G1 X68.992 Y80.894 F9000.000
G1 E4.50000 F3300.00000
G1 F1800
G1 X70.107 Y79.779 E4.52156
G1 X82.300 Y79.779 E4.68820
G1 X83.850 Y81.330 E4.71817
G1 X83.850 Y118.522 E5.22650
G1 X82.300 Y120.072 E5.25647
G1 X70.107 Y120.072 E5.42311
G1 X68.557 Y118.522 E5.45308
G1 X68.557 Y81.330 E5.96142
G1 X68.950 Y80.937 E5.96901
G1 X69.126 Y81.114 F9000.000
G1 F1800
G1 X70.211 Y80.029 E5.98997
G1 X82.196 Y80.029 E6.15378
G1 X83.600 Y81.433 E6.18092
G1 X83.600 Y118.419 E6.68642
G1 X82.196 Y119.822 E6.71356
G1 X70.211 Y119.822 E6.87737
G1 X68.807 Y118.419 E6.90451
G1 X68.807 Y81.433 E7.41002
G1 X69.084 Y81.156 E7.41537
G1 X69.261 Y81.333 F9000.000
G1 F1800
G1 X70.314 Y80.279 E7.43574
G1 X82.093 Y80.279 E7.59672
G1 X83.350 Y81.537 E7.62103
G1 X83.350 Y118.315 E8.12370
G1 X82.093 Y119.572 E8.14801
G1 X70.314 Y119.572 E8.30899
G1 X69.057 Y118.315 E8.33329
G1 X69.057 Y81.537 E8.83597
G1 X69.218 Y81.375 E8.83909
G1 X69.395 Y81.552 F9000.000
G1 F1800
G1 X70.418 Y80.529 E8.85886
G1 X81.989 Y80.529 E9.01701
G1 X83.100 Y81.640 E9.03849
G1 X83.100 Y118.211 E9.53833
G1 X81.989 Y119.322 E9.55981
G1 X70.418 Y119.322 E9.71796
G1 X69.307 Y118.211 E9.73943
G1 X69.307 Y81.640 E10.23928
G1 X69.353 Y81.594 E10.24016
G1 X69.557 Y81.744 F9000.000
G1 F1800
G1 X70.521 Y80.779 E10.25881
G1 X81.886 Y80.779 E10.41413
G1 X82.850 Y81.744 E10.43277
G1 X82.850 Y118.108 E10.92979
G1 X81.886 Y119.072 E10.94843
G1 X70.521 Y119.072 E11.10375
G1 X69.557 Y118.108 E11.12240
G1 X69.557 Y81.804 E11.61859
G1 X69.807 Y81.847 F9000.000
G1 F1800
G1 X70.625 Y81.029 E11.63440
G1 X81.782 Y81.029 E11.78689
G1 X82.600 Y81.847 E11.80271
G1 X82.600 Y118.004 E12.29689
G1 X81.782 Y118.822 E12.31271
G1 X70.625 Y118.822 E12.46520
G1 X69.807 Y118.004 E12.48101
G1 X69.807 Y81.907 E12.97437
G1 X70.057 Y81.951 F9000.000
G1 F1800
G1 X70.729 Y81.279 E12.98736
G1 X81.678 Y81.279 E13.13702
G1 X82.350 Y81.951 E13.15000
G1 X82.350 Y117.901 E13.64135
G1 X81.678 Y118.572 E13.65433
G1 X70.729 Y118.572 E13.80399
G1 X70.057 Y117.901 E13.81698
G1 X70.057 Y82.011 E14.30751
G1 X70.307 Y82.054 F9000.000
G1 F1800
G1 X70.832 Y81.529 E14.31766
G1 X81.575 Y81.529 E14.46449
G1 X82.100 Y82.054 E14.47464
G1 X82.100 Y117.797 E14.96316
G1 X81.575 Y118.322 E14.97332
G1 X70.832 Y118.322 E15.12015
G1 X70.307 Y117.797 E15.13030
G1 X70.307 Y82.114 E15.61800
G1 X70.557 Y82.158 F9000.000
G1 F1800
G1 X70.936 Y81.779 E15.62532
G1 X81.471 Y81.779 E15.76932
G1 X81.850 Y82.158 E15.77664
G1 X81.850 Y117.694 E16.26233
G1 X81.471 Y118.072 E16.26966
G1 X70.936 Y118.072 E16.41365
G1 X70.557 Y117.694 E16.42098
G1 X70.557 Y82.218 E16.90585
G1 X70.807 Y82.262 F9000.000
G1 F1800
G1 X71.039 Y82.029 E16.91034
G1 X81.368 Y82.029 E17.05151
G1 X81.600 Y82.262 E17.05600
G1 X81.600 Y117.590 E17.53886
G1 X81.368 Y117.822 E17.54335
G1 X71.039 Y117.822 E17.68452
G1 X70.807 Y117.590 E17.68901
G1 X70.807 Y82.322 E18.17105
G1 X71.057 Y82.365 F9000.000
G1 F1800
G1 X71.143 Y82.279 E18.17271
G1 X81.264 Y82.279 E18.31104
G1 X81.350 Y82.365 E18.31271
G1 X81.350 Y117.487 E18.79273
G1 X81.264 Y117.572 E18.79440
G1 X71.143 Y117.572 E18.93273
G1 X71.057 Y117.487 E18.93439
G1 X71.057 Y82.425 E19.41360
G1 X71.333 Y82.556 F9000.000
G1 F1800
G1 X81.073 Y82.556 E19.53719
G1 X81.073 Y117.296 E19.97802
G1 X71.333 Y117.296 E20.10161
G1 X71.333 Y82.616 E20.54167
G1 X71.333 Y82.556 F9000.000
G1 X71.566 Y82.788 F9000.000
G1 F1800
G1 X80.841 Y82.788 E20.65937
G1 X80.841 Y117.064 E21.09430
G1 X71.566 Y117.064 E21.21201
G1 X71.566 Y82.848 E21.64618
G1 E17.14618 F3300.00000
G92 E0
G1 X80.609 Y104.320 F9000.000
G1 E4.50000 F3300.00000
G1 F1800
G1 X80.609 Y116.832 E4.65877
G1 X71.798 Y116.832 E4.77058
G1 X71.798 Y83.020 E5.19962
G1 X80.609 Y83.020 E5.31143
G1 X80.609 Y104.260 E5.58095
G1 E1.08095 F3300.00000
G92 E0
G1 X80.352 Y116.624 F9000.000
G1 E4.50000 F3300.00000
G1 F1800
G1 X80.402 Y116.575 E4.50089
G1 X80.402 Y116.246 E4.50505
G1 X80.024 Y116.624 E4.51183
G1 X79.696 Y116.624 E4.51600
G1 X80.402 Y115.918 E4.52867
G1 X80.402 Y115.590 E4.53284
G1 X79.368 Y116.624 E4.55140
G1 X79.039 Y116.624 E4.55557
G1 X80.402 Y115.262 E4.58002
G1 X80.402 Y114.933 E4.58419
G1 X78.711 Y116.624 E4.61454
G1 X78.383 Y116.624 E4.61871
G1 X80.402 Y114.605 E4.65495
G1 X80.402 Y114.277 E4.65911
G1 X78.054 Y116.624 E4.70125
G1 X77.726 Y116.624 E4.70541
G1 X80.402 Y113.948 E4.75344
G1 X80.402 Y113.620 E4.75761
G1 X77.398 Y116.624 E4.81153
G1 X77.069 Y116.624 E4.81569
G1 X80.402 Y113.292 E4.87551
G1 X80.402 Y112.963 E4.87967
G1 X76.741 Y116.624 E4.94538
G1 X76.413 Y116.624 E4.94954
G1 X80.402 Y112.635 E5.02114
G1 X80.402 Y112.307 E5.02531
G1 X76.085 Y116.624 E5.10280
G1 X75.756 Y116.624 E5.10696
G1 X80.402 Y111.979 E5.19035
G1 X80.402 Y111.650 E5.19451
G1 X75.428 Y116.624 E5.28379
G1 X75.100 Y116.624 E5.28795
G1 X80.402 Y111.322 E5.38312
G1 X80.402 Y110.994 E5.38729
G1 X74.771 Y116.624 E5.48835
G1 X74.443 Y116.624 E5.49251
G1 X80.402 Y110.665 E5.59947
G1 X80.402 Y110.337 E5.60363
G1 X74.115 Y116.624 E5.71648
G1 X73.786 Y116.624 E5.72064
G1 X80.402 Y110.009 E5.83938
G1 X80.402 Y109.680 E5.84355
G1 X73.458 Y116.624 E5.96818
G1 X73.130 Y116.624 E5.97234
G1 X80.402 Y109.352 E6.10287
G1 X80.402 Y109.024 E6.10703
G1 X72.801 Y116.624 E6.24345
G1 X72.473 Y116.624 E6.24762
G1 X80.402 Y108.696 E6.38992
G1 X80.402 Y108.367 E6.39409
G1 X72.145 Y116.624 E6.54229
G1 X72.005 Y116.624 E6.54406
G1 X72.005 Y116.436 E6.54646
G1 X80.402 Y108.039 E6.69716
G1 X80.402 Y107.711 E6.70133
G1 X72.005 Y116.107 E6.85204
G1 X72.005 Y115.779 E6.85621
G1 X80.402 Y107.382 E7.00691
G1 X80.402 Y107.054 E7.01108
G1 X72.005 Y115.451 E7.16179
G1 X72.005 Y115.122 E7.16596
G1 X80.402 Y106.726 E7.31666
G1 X80.402 Y106.397 E7.32083
G1 X72.005 Y114.794 E7.47154
G1 X72.005 Y114.466 E7.47570
G1 X80.402 Y106.069 E7.62641
G1 X80.402 Y105.741 E7.63058
G1 X72.005 Y114.137 E7.78129
G1 X72.005 Y113.809 E7.78545
G1 X80.402 Y105.412 E7.93616
G1 X80.402 Y105.084 E7.94033
G1 X72.005 Y113.481 E8.09104
G1 X72.005 Y113.153 E8.09520
G1 X80.402 Y104.756 E8.24591
G1 X80.402 Y104.428 E8.25008
G1 X72.005 Y112.824 E8.40079
G1 X72.005 Y112.496 E8.40495
G1 X80.402 Y104.099 E8.55566
G1 X80.402 Y103.771 E8.55983
G1 X72.005 Y112.168 E8.71054
G1 X72.005 Y111.839 E8.71470
G1 X80.402 Y103.443 E8.86541
G1 X80.402 Y103.114 E8.86958
G1 X72.005 Y111.511 E9.02029
G1 X72.005 Y111.183 E9.02445
G1 X80.402 Y102.786 E9.17516
G1 X80.402 Y102.458 E9.17933
G1 X72.005 Y110.854 E9.33004
G1 X72.005 Y110.526 E9.33420
G1 X80.402 Y102.129 E9.48491
G1 X80.402 Y101.801 E9.48908
G1 X72.005 Y110.198 E9.63978
G1 X72.005 Y109.870 E9.64395
G1 X80.402 Y101.473 E9.79466
G1 X80.402 Y101.145 E9.79883
G1 X72.005 Y109.541 E9.94953
G1 X72.005 Y109.213 E9.95370
G1 X80.402 Y100.816 E10.10441
G1 X80.402 Y100.488 E10.10858
G1 X72.005 Y108.885 E10.25928
G1 X72.005 Y108.556 E10.26345
G1 X80.402 Y100.160 E10.41416
G1 X80.402 Y99.831 E10.41833
G1 X72.005 Y108.228 E10.56903
G1 X72.005 Y107.900 E10.57320
G1 X80.402 Y99.503 E10.72391
G1 X80.402 Y99.175 E10.72807
G1 X72.005 Y107.571 E10.87878
G1 X72.005 Y107.243 E10.88295
G1 X80.402 Y98.846 E11.03366
G1 X80.402 Y98.518 E11.03782
G1 X72.005 Y106.915 E11.18853
G1 X72.005 Y106.587 E11.19270
G1 X80.402 Y98.190 E11.34341
G1 X80.402 Y97.862 E11.34757
G1 X72.005 Y106.258 E11.49828
G1 X72.005 Y105.930 E11.50245
G1 X80.402 Y97.533 E11.65316
G1 X80.402 Y97.205 E11.65732
G1 X72.005 Y105.602 E11.80803
G1 X72.005 Y105.273 E11.81220
G1 X80.402 Y96.877 E11.96291
G1 X80.402 Y96.548 E11.96707
G1 X72.005 Y104.945 E12.11778
G1 X72.005 Y104.617 E12.12195
G1 X80.402 Y96.220 E12.27266
G1 X80.402 Y95.892 E12.27682
G1 X72.005 Y104.288 E12.42753
G1 X72.005 Y103.960 E12.43170
G1 X80.402 Y95.563 E12.58240
G1 X80.402 Y95.235 E12.58657
G1 X72.005 Y103.632 E12.73728
G1 X72.005 Y103.303 E12.74145
G1 X80.402 Y94.907 E12.89215
G1 X80.402 Y94.579 E12.89632
G1 X72.005 Y102.975 E13.04703
G1 X72.005 Y102.647 E13.05120
G1 X80.402 Y94.250 E13.20190
G1 X80.402 Y93.922 E13.20607
G1 X72.005 Y102.319 E13.35678
G1 X72.005 Y101.990 E13.36095
G1 X80.402 Y93.594 E13.51165
G1 X80.402 Y93.265 E13.51582
G1 X72.005 Y101.662 E13.66653
G1 X72.005 Y101.334 E13.67069
G1 X80.402 Y92.937 E13.82140
G1 X80.402 Y92.609 E13.82557
G1 X72.005 Y101.005 E13.97628
G1 X72.005 Y100.677 E13.98044
G1 X80.402 Y92.280 E14.13115
G1 X80.402 Y91.952 E14.13532
G1 X72.005 Y100.349 E14.28603
G1 X72.005 Y100.020 E14.29019
G1 X80.402 Y91.624 E14.44090
G1 X80.402 Y91.295 E14.44507
G1 X72.005 Y99.692 E14.59578
G1 X72.005 Y99.364 E14.59994
G1 X80.402 Y90.967 E14.75065
G1 X80.402 Y90.639 E14.75482
G1 X72.005 Y99.036 E14.90553
G1 X72.005 Y98.707 E14.90969
G1 X80.402 Y90.311 E15.06040
G1 X80.402 Y89.982 E15.06457
G1 X72.005 Y98.379 E15.21528
G1 X72.005 Y98.051 E15.21944
G1 X80.402 Y89.654 E15.37015
G1 X80.402 Y89.326 E15.37432
G1 X72.005 Y97.722 E15.52502
G1 X72.005 Y97.394 E15.52919
G1 X80.402 Y88.997 E15.67990
G1 X80.402 Y88.669 E15.68407
G1 X72.005 Y97.066 E15.83477
G1 X72.005 Y96.737 E15.83894
G1 X80.402 Y88.341 E15.98965
G1 X80.402 Y88.012 E15.99382
G1 X72.005 Y96.409 E16.14452
G1 X72.005 Y96.081 E16.14869
G1 X80.402 Y87.684 E16.29940
G1 X80.402 Y87.356 E16.30357
G1 X72.005 Y95.753 E16.45427
G1 X72.005 Y95.424 E16.45844
G1 X80.402 Y87.028 E16.60915
G1 X80.402 Y86.699 E16.61331
G1 X72.005 Y95.096 E16.76402
G1 X72.005 Y94.768 E16.76819
G1 X80.402 Y86.371 E16.91890
G1 X80.402 Y86.043 E16.92306
G1 X72.005 Y94.439 E17.07377
G1 X72.005 Y94.111 E17.07794
G1 X80.402 Y85.714 E17.22865
G1 X80.402 Y85.386 E17.23281
G1 X72.005 Y93.783 E17.38352
G1 X72.005 Y93.454 E17.38769
G1 X80.402 Y85.058 E17.53840
G1 X80.402 Y84.729 E17.54256
G1 X72.005 Y93.126 E17.69327
G1 X72.005 Y92.798 E17.69744
G1 X80.402 Y84.401 E17.84815
G1 X80.402 Y84.073 E17.85231
G1 X72.005 Y92.470 E18.00302
G1 X72.005 Y92.141 E18.00719
G1 X80.402 Y83.745 E18.15790
G1 X80.402 Y83.416 E18.16206
G1 X72.005 Y91.813 E18.31277
G1 X72.005 Y91.485 E18.31694
G1 X80.262 Y83.227 E18.46514
G1 X79.934 Y83.227 E18.46931
G1 X72.005 Y91.156 E18.61162
G1 X72.005 Y90.828 E18.61578
G1 X79.606 Y83.227 E18.75220
G1 X79.277 Y83.227 E18.75637
G1 X72.005 Y90.500 E18.88689
G1 X72.005 Y90.171 E18.89106
G1 X78.949 Y83.227 E19.01569
G1 X78.621 Y83.227 E19.01986
G1 X72.005 Y89.843 E19.13860
G1 X72.005 Y89.515 E19.14277
G1 X78.292 Y83.227 E19.25561
G1 X77.964 Y83.227 E19.25978
G1 X72.005 Y89.186 E19.36674
G1 X72.005 Y88.858 E19.37090
G1 X77.636 Y83.227 E19.47197
G1 X77.308 Y83.227 E19.47613
G1 X72.005 Y88.530 E19.57130
G1 X72.005 Y88.202 E19.57547
G1 X76.979 Y83.227 E19.66475
G1 X76.651 Y83.227 E19.66891
G1 X72.005 Y87.873 E19.75230
G1 X72.005 Y87.545 E19.75646
G1 X76.323 Y83.227 E19.83396
G1 X75.994 Y83.227 E19.83812
G1 X72.005 Y87.217 E19.90972
G1 X72.005 Y86.888 E19.91389
G1 X75.666 Y83.227 E19.97960
G1 X75.338 Y83.227 E19.98376
G1 X72.005 Y86.560 E20.04358
G1 X72.005 Y86.232 E20.04775
G1 X75.009 Y83.227 E20.10167
G1 X74.681 Y83.227 E20.10583
G1 X72.005 Y85.903 E20.15386
G1 X72.005 Y85.575 E20.15803
G1 X74.353 Y83.227 E20.20017
G1 X74.025 Y83.227 E20.20433
G1 X72.005 Y85.247 E20.24058
G1 X72.005 Y84.919 E20.24475
G1 X73.696 Y83.227 E20.27510
G1 X73.368 Y83.227 E20.27926
G1 X72.005 Y84.590 E20.30372
G1 X72.005 Y84.262 E20.30789
G1 X73.040 Y83.227 E20.32646
G1 X72.711 Y83.227 E20.33062
G1 X72.005 Y83.934 E20.34330
G1 X72.005 Y83.605 E20.34747
G1 X72.383 Y83.227 E20.35425
G1 X72.055 Y83.227 E20.35841
G1 X72.005 Y83.277 E20.35930
M106 S242.25
M104 S185 ; set temperature
G1 E15.85930 F3300.00000
G92 E0
G1 Z0.230 F9000.000
G1 X71.423 Y83.277 F9000.000
G1 E4.50000 F3300.00000
G1 F900
G1 X71.423 Y82.646 E4.51110
G1 X80.983 Y82.646 E4.67937
G1 X80.983 Y117.206 E5.28768
G1 X71.423 Y117.206 E5.45595
G1 X71.423 Y83.337 E6.05210
G1 X71.750 Y83.046 F9000.000
G1 X71.902 Y83.337 F9000.000
G1 F1800
G1 X71.902 Y83.124 E6.05691
G1 X80.505 Y83.124 E6.25174
G1 X80.505 Y116.727 E7.01278
G1 X71.902 Y116.727 E7.20762
G1 X71.902 Y83.397 E7.96249
G1 E3.46249 F3300.00000
G92 E0
G1 X72.441 Y97.164 F9000.000
G1 E4.50000 F3300.00000
G1 F1800
G1 X72.441 Y83.663 E4.80577
G1 X79.966 Y83.663 E4.97622
G1 X79.966 Y116.189 E5.71286
G1 X72.441 Y116.189 E5.88331
G1 X72.441 Y97.224 E6.31282
G1 E1.81282 F3300.00000
G92 E0
G1 X79.485 Y84.259 F9000.000
G1 E4.50000 F3300.00000
G1 F1200
G1 X79.371 Y84.144 E4.50372
G1 X78.597 Y84.144 E4.52151
G1 X79.485 Y85.032 E4.55038
G1 X79.485 Y85.806 E4.56817
G1 X77.824 Y84.144 E4.62220
G1 X77.050 Y84.144 E4.63999
G1 X79.485 Y86.579 E4.71918
G1 X79.485 Y87.352 E4.73697
G1 X76.277 Y84.144 E4.84131
G1 X75.504 Y84.144 E4.85910
G1 X79.485 Y88.126 E4.98860
G1 X79.485 Y88.899 E5.00638
G1 X74.730 Y84.144 E5.16104
G1 X73.957 Y84.144 E5.17883
G1 X79.485 Y89.673 E5.35864
G1 X79.485 Y90.446 E5.37643
G1 X73.183 Y84.144 E5.58139
G1 X72.922 Y84.144 E5.58740
G1 X72.922 Y84.656 E5.59918
G1 X79.485 Y91.219 E5.81265
G1 X79.485 Y91.993 E5.83043
G1 X72.922 Y85.430 E6.04390
G1 X72.922 Y86.203 E6.06169
G1 X79.485 Y92.766 E6.27515
G1 X79.485 Y93.540 E6.29294
G1 X72.922 Y86.977 E6.50641
G1 X72.922 Y87.750 E6.52420
G1 X79.485 Y94.313 E6.73766
G1 X79.485 Y95.086 E6.75545
G1 X72.922 Y88.523 E6.96892
G1 X72.922 Y89.297 E6.98671
G1 X79.485 Y95.860 E7.20017
G1 X79.485 Y96.633 E7.21796
G1 X72.922 Y90.070 E7.43143
G1 X72.922 Y90.844 E7.44921
G1 X79.485 Y97.407 E7.66268
G1 X79.485 Y98.180 E7.68047
G1 X72.922 Y91.617 E7.89394
G1 X72.922 Y92.391 E7.91172
G1 X79.485 Y98.954 E8.12519
G1 X79.485 Y99.727 E8.14298
G1 X72.922 Y93.164 E8.35644
G1 X72.922 Y93.937 E8.37423
G1 X79.485 Y100.500 E8.58770
G1 X79.485 Y101.274 E8.60549
G1 X72.922 Y94.711 E8.81895
G1 X72.922 Y95.484 E8.83674
G1 X79.485 Y102.047 E9.05021
G1 X79.485 Y102.821 E9.06800
G1 X72.922 Y96.258 E9.28146
G1 X72.922 Y97.031 E9.29925
G1 X79.485 Y103.594 E9.51272
G1 X79.485 Y104.367 E9.53050
G1 X72.922 Y97.804 E9.74397
G1 X72.922 Y98.578 E9.76176
G1 X79.485 Y105.141 E9.97523
G1 X79.485 Y105.914 E9.99301
G1 X72.922 Y99.351 E10.20648
G1 X72.922 Y100.125 E10.22427
G1 X79.485 Y106.688 E10.43773
G1 X79.485 Y107.461 E10.45552
G1 X72.922 Y100.898 E10.66899
G1 X72.922 Y101.671 E10.68678
G1 X79.485 Y108.235 E10.90024
G1 X79.485 Y109.008 E10.91803
G1 X72.922 Y102.445 E11.13150
G1 X72.922 Y103.218 E11.14929
G1 X79.485 Y109.781 E11.36275
G1 X79.485 Y110.555 E11.38054
G1 X72.922 Y103.992 E11.59401
G1 X72.922 Y104.765 E11.61179
G1 X79.485 Y111.328 E11.82526
G1 X79.485 Y112.102 E11.84305
G1 X72.922 Y105.539 E12.05652
G1 X72.922 Y106.312 E12.07430
G1 X79.485 Y112.875 E12.28777
G1 X79.485 Y113.648 E12.30556
G1 X72.922 Y107.085 E12.51902
G1 X72.922 Y107.859 E12.53681
G1 X79.485 Y114.422 E12.75028
G1 X79.485 Y115.195 E12.76807
G1 X72.922 Y108.632 E12.98153
